X:280
T: KATHRINCHEN TRAU NUR NICHT
N: E1423A
O: Europa, Mitteleuropa, Deutschland, Hessen, Wetterau; Rheinland
R: Staende -, Soldaten - Lied, Liebe +++ Taktwechsel nachtraeglich ++++
M: 4/4
L: 1/16
K: G
D4 | G6A2B3AB2e2 | d8
e8 | d6B2c4d2c2 | B8z4
d2c2 | B4g4e6d2 | e2d2c2B2
A4e4d6e2 | d2c2B2c2
d4d2c2B4z4
e8 | d4d2c2B4

